X:1
T:Title
%%score ( 1 2 ) ( 3 4 )
L:1/8
Q:1/4=107
M:4/4
K:G
V:1 treble nm="Grand Piano, Soprano"
V:2 treble 
V:3 bass nm="Choir Pad, Conchita, 11.11.11. D"
V:4 bass 
V:1
 [B,D]3 [B,D] [CE]2 [CG]2 | B4 D4 | [CE]3 [CE] [Dc]2 [DB]2 | B2- [^CB]2 A2- [CA]2 | %4
 [CA]3 [CB] [CA]2 D2 | d2- [Dd]2 B2- [DB]2 | [^CA]3 [CA] [CB]2 [CA]2 | D4 C4 | B,-[B,E]FG AGDE | %9
 [CF]2 [CF]2 [CF]4 | DA^GA BAFE | [B,E]2 [B,D]2 [DB]4 | [DB][DB][^C_B][D=B] [Dd]2 [DB]2 | %13
 AAGA B2- [=DB]2 | ABAE ABAE | [CF]2 [CA]2 [B,G]4- | [B,G]4 z4 |] %17
V:2
 x8 | B,2 B,2 B,2 B,2 | x8 | ^C2 z2 C2 z2 | x8 | D2 z2 D2 z2 | x8 | x8 | .D2 B,2 B,2 B,2 | x8 | %10
 C2 C2 C2 C2 | x8 | x8 | E2 E2 ^D2 z2 | ^C2 C2 C2 C2 | x8 | x8 |] %17
V:3
 D,2 D,2 E,2 ^D,2 | D,2 [G,,D,]2 [G,,D,G,]2 [G,,D,G,]2 | [C,G,]3 [C,G,] [E,^G,]2 [E,G,]2 | %3
w: By~Ira~Bishop~WIlson,~1909 * * *|||
 [A,,E,G,]2 [A,,E,G,]2 [A,,E,G,]2 [A,,E,G,]2 | [D,F,]2 [D,F,]2 [D,F,]2 [C,F,]2 | %5
w: ||
 [B,,G,]2 [B,,G,]2 [G,,G,]2 [G,,G,]2 | [A,,G,]2 [A,,G,]2 [A,,G,]2 [A,,G,]2 | %7
w: ||
 [D,F,]2 [E,G,]2 [F,A,]4 | [G,,G,]2 [G,,D,]2 [G,,D,]2 [G,,D,]2 | [A,,D,]2 [A,,D,]2 [A,,D,]4 | %10
w: |||
 [D,F,]2 [D,F,]2 [D,F,]2 [D,A,]2 | [G,,G,]2 [G,,G,]2 [G,,G,]4 | %12
w: ||
 [G,,G,]2 [G,,G,]2 [B,,G,]2 [G,,G,]2 | [C,G,]2 [C,E,]2 [B,,F,]2 [E,^G,]2 | %14
w: ||
 [A,,A,]2 [A,,A,]2 [A,,G,]2 [A,,G,]2 | [D,A,]2 [D,F,]2 [G,,D,G,]4- | [G,,D,G,]4 z4 |] %17
w: |||
V:4
 G,,8- | G,,2 z2 z4 | x8 | x8 | x8 | x8 | x8 | x8 | x8 | x8 | x8 | x8 | x8 | x8 | x8 | x8 | x8 |] %17

